src/constants/images/new-logo-wh.svg

<svg width="290" height="235" fill="none" xmlns="http://www.w3.org/2000/svg"><path d="M53.6 148.4c-5.4-5.4-5.4-14.1 0-19.5l54.5-54.5-21.7-21.7c-5.4-5.4-14.1-5.4-19.5 0L4.2 115.4c-5.4 5.4-5.4 14.1 0 19.5l66.2 66.2c5.4 5.4 14.1 5.4 19.5 0l8.2-8.2-44.5-44.5z" fill="#fff"/><path d="M165.2 230.9L59.4 125c-5.4-5.4-5.4-14.1 0-19.5L160.1 4.8c5.4-5.4 14.1-5.4 19.5 0l105.8 105.8c5.4 5.4 5.4 14.1 0 19.5L184.8 230.9c-5.4 5.4-14.2 5.4-19.6 0z" fill="#fff"/></svg>

<svg width="290" height="235" viewBox="0 0 290 235" fill="none" xmlns="http://www.w3.org/2000/svg">
<path d="M53.6 148.4C48.2 143 48.2 134.3 53.6 128.9L108.1 74.4L86.4 52.7C81 47.3 72.3 47.3 66.9 52.7L4.20002 115.4C-1.19998 120.8 -1.19998 129.5 4.20002 134.9L70.4 201.1C75.8 206.5 84.5 206.5 89.9 201.1L98.1 192.9L53.6 148.4Z" fill="white"/>
<path d="M165.2 230.9L59.4 125C54 119.6 54 110.9 59.4 105.5L160.1 4.8C165.5 -0.6 174.2 -0.6 179.6 4.8L285.4 110.6C290.8 116 290.8 124.7 285.4 130.1L184.8 230.9C179.4 236.3 170.6 236.3 165.2 230.9Z" fill="white"/>
</svg>
